polaris-icons/icons/new-icons/DomainsMajor.svg

<svg width="20" height="20" viewBox="0 0 20 20" fill="none" xmlns="http://www.w3.org/2000/svg">
<path fill-rule="evenodd" clip-rule="evenodd" d="M8.02731 8.94815C8.00923 9.28851 8 9.63979 8 10C8 10.5016 8.0179 10.986 8.05267 11.4476C8.66874 11.4824 9.32197 11.5002 10 11.5002C10.4143 11.5002 10.75 11.836 10.75 12.2502C10.75 12.6644 10.4143 13.0002 10 13.0002C9.396 13.0002 8.80691 12.9866 8.24113 12.9595C8.34657 13.542 8.48498 14.0634 8.65319 14.5071C9.09339 15.6681 9.60385 16 10 16C10.4142 16 10.75 16.3358 10.75 16.75C10.75 17.1642 10.4142 17.5 10 17.5C5.85786 17.5 2.5 14.1421 2.5 10C2.5 5.85786 5.85786 2.5 10 2.5C14.1421 2.5 17.5 5.85786 17.5 10C17.5 10.4142 17.1642 10.75 16.75 10.75C16.3358 10.75 16 10.4142 16 10C16 9.44972 15.9259 8.91674 15.7872 8.41049C15.1323 8.59256 14.344 8.73065 13.4683 8.82722C13.4895 9.21076 13.5 9.60265 13.5 10C13.5 10.4142 13.1642 10.75 12.75 10.75C12.3358 10.75 12 10.4142 12 10C12 9.6398 11.9908 9.28851 11.9727 8.94816C11.3381 8.98278 10.6761 8.99974 10 8.99974C9.32392 8.99974 8.66188 8.98278 8.02731 8.94815ZM4.21281 8.41047C4.07408 8.91673 4 9.44971 4 10C4 10.2637 4.01701 10.5234 4.04999 10.7781C4.54266 10.9772 5.2788 11.1521 6.22575 11.2793C6.32867 11.2931 6.43354 11.3063 6.54026 11.3189C6.51333 10.889 6.5 10.448 6.5 10C6.5 9.60265 6.51049 9.21076 6.53166 8.82721C5.65598 8.73064 4.86772 8.59254 4.21281 8.41047ZM4.7948 7.01369C5.31584 7.1456 5.9513 7.25352 6.67517 7.33387C6.79926 6.45358 6.99015 5.6481 7.25062 4.96114C7.29814 4.83579 7.34929 4.71142 7.4042 4.58904C6.30875 5.11552 5.39783 5.96486 4.7948 7.01369ZM11.8266 7.45367C11.2497 7.48398 10.6379 7.49974 10 7.49974C9.36214 7.49974 8.75032 7.48397 8.17341 7.45367C8.28423 6.70289 8.44614 6.03901 8.65319 5.49292C9.09339 4.33189 9.60385 4 10 4C10.3962 4 10.9066 4.33189 11.3468 5.49292C11.5539 6.03901 11.7158 6.7029 11.8266 7.45367ZM13.3248 7.33387C14.0487 7.25353 14.6842 7.14561 15.2052 7.0137C14.6022 5.96486 13.6913 5.11552 12.5958 4.58904C12.6507 4.71142 12.7019 4.83579 12.7494 4.96114C13.0098 5.6481 13.2007 6.45359 13.3248 7.33387ZM7.4042 15.411C6.14286 14.8048 5.12617 13.7705 4.54244 12.4965C4.99714 12.6061 5.49736 12.6949 6.02598 12.7659C6.24431 12.7953 6.46976 12.8219 6.70157 12.8457C6.8257 13.656 7.00797 14.3989 7.25062 15.0389C7.29814 15.1642 7.34929 15.2886 7.4042 15.411Z" fill="#4A4A4A"/>
<path d="M13.0652 12.4594C12.895 12.4171 12.715 12.467 12.591 12.5911C12.467 12.7151 12.417 12.895 12.4593 13.0652L13.5806 17.5757C13.6241 17.7506 13.7584 17.8886 13.9321 17.9368C14.1058 17.985 14.292 17.936 14.4194 17.8086L15.5836 16.6444L16.4246 17.4854C16.6199 17.6806 16.9365 17.6806 17.1317 17.4854L17.4853 17.1318C17.6806 16.9365 17.6806 16.62 17.4853 16.4247L16.6443 15.5837L17.8085 14.4195C17.936 14.292 17.985 14.1058 17.9367 13.9322C17.8885 13.7585 17.7505 13.6242 17.5756 13.5807L13.0652 12.4594Z" fill="#4A4A4A"/>
</svg>

<svg viewBox="0 0 20 20" xmlns="http://www.w3.org/2000/svg"><path fill-rule="evenodd" d="M8.027 8.948a19.852 19.852 0 0 0 .026 2.5c.616.034 1.269.052 1.947.052a.75.75 0 1 1 0 1.5c-.604 0-1.193-.013-1.759-.04.106.582.244 1.103.412 1.547.44 1.161.95 1.493 1.347 1.493a.75.75 0 0 1 0 1.5 7.5 7.5 0 1 1 7.5-7.5.75.75 0 0 1-1.5 0c0-.55-.074-1.083-.213-1.59-.655.183-1.443.32-2.319.417.021.384.032.776.032 1.173a.75.75 0 0 1-1.5 0c0-.36-.01-.711-.027-1.052-.635.035-1.297.052-1.973.052-.676 0-1.338-.017-1.973-.052Zm-3.814-.538a6.007 6.007 0 0 0-.163 2.368c.493.2 1.229.374 2.176.501l.314.04a21.13 21.13 0 0 1-.008-2.492c-.876-.096-1.664-.234-2.32-.417Zm.582-1.396c.52.132 1.156.24 1.88.32.124-.88.315-1.686.576-2.373.047-.125.098-.25.153-.372a6.026 6.026 0 0 0-2.61 2.425Zm7.032.44c-.577.03-1.19.046-1.827.046-.638 0-1.25-.016-1.827-.046.111-.751.273-1.415.48-1.961.44-1.161.95-1.493 1.347-1.493.396 0 .907.332 1.347 1.493.207.546.369 1.21.48 1.96Zm1.498-.12c.724-.08 1.36-.188 1.88-.32a6.026 6.026 0 0 0-2.61-2.425c.056.122.107.247.154.372.26.687.452 1.493.576 2.373Zm-5.92 8.077a6.024 6.024 0 0 1-2.863-2.915c.455.11.955.199 1.484.27.218.03.444.056.676.08.124.81.306 1.553.549 2.193.047.125.098.25.153.372Z" fill="#5C5F62"/><path d="M13.065 12.46a.5.5 0 0 0-.606.605l1.122 4.51a.5.5 0 0 0 .838.234l1.165-1.165.84.841a.5.5 0 0 0 .708 0l.353-.353a.5.5 0 0 0 0-.707l-.84-.841 1.163-1.165a.5.5 0 0 0-.232-.838l-4.51-1.122Z" fill="#5C5F62"/></svg>
